z-union/img/icons/arrow-down-white.svg

<svg width="9" height="16" viewBox="0 0 9 16" fill="none" xmlns="http://www.w3.org/2000/svg">
<path d="M4.15977 14.8664C4.36213 15.0543 4.67849 15.0426 4.8664 14.8402L7.92843 11.5427C8.11633 11.3403 8.10461 11.0239 7.90225 10.836C7.6999 10.6481 7.38353 10.6598 7.19563 10.8622L4.47383 13.7934L1.54265 11.0716C1.3403 10.8837 1.02393 10.8954 0.836031 11.0977C0.64813 11.3001 0.659847 11.6165 0.862203 11.8044L4.15977 14.8664ZM3.50034 1.01851L4.00034 14.5185L4.99966 14.4815L4.49966 0.981494L3.50034 1.01851Z" fill="#90A0C8"/>
</svg>

<svg width="9" height="16" fill="none" xmlns="http://www.w3.org/2000/svg"><path d="M4.16 14.866a.5.5 0 00.706-.026l3.062-3.297a.5.5 0 00-.732-.68l-2.722 2.93-2.931-2.721a.5.5 0 10-.68.732l3.297 3.062zM3.5 1.02l.5 13.5 1-.037-.5-13.5-1 .037z" fill="#90A0C8"/></svg>
